X:1
T: Garech's wedding
M: 9/8
L: 1/8
R: slip jig
K: Emin
B|:~E3e2BG2B|A2AA2GA2B|~E3G2Be2f|1gfe fedB2e:|2gfe fede2f|
|:g2B BABg2e|f2A AGAf2a|1g2B BABg2e|fdd add fga :|2gfe fed efg|BcB AGFE2|]

